X: 1
T: Love At The Endings
R: reel
M: 4/4
L: 1/8
K: Dmaj
FE|:DEFA BcdB|AF (3FDF AFEF|DEFA (3BcB AF|(3GFE (3FED B,DDF|
DEFA BcdB|AF (3FEF ABde|fgfe dfec|1 dBAF D3 E:|2 dBAF D3 g||
|:fgfe defg|afbf afed|fgfe dfbf|afdf e2 de|
fgfe dcdB|AF (3FEF E2 DE|FABc dfec|1 dBAF d3 g:|2 dBAF D3 E||


Tune 990	Setting 14195

